brandFactory_export/2.Regular/Servicio tecnico_2Regular.svg

<?xml version="1.0" encoding="UTF-8"?>
<svg width="24px" height="24px" viewBox="0 0 24 24" version="1.1" xmlns="http://www.w3.org/2000/svg" xmlns:xlink="http://www.w3.org/1999/xlink">
    <title>2.Regular/Servicio tecnico_2Regular</title>
    <g id="Symbols" stroke="none" stroke-width="1" fill="none" fill-rule="evenodd">
        <g id="2.Regular/Servicio-tecnico_2Regular" fill="#5CB615" fill-rule="nonzero">
            <path d="M19.5563025,1.34453782 C19.7915966,1.34453782 19.8521008,1.48235294 19.6840336,1.65042017 L18.8302521,2.50420168 C18.6621849,2.67226891 18.5512605,3.00168067 18.5848739,3.23697479 L18.7596639,4.46386555 C18.7932773,4.69915966 19.0117647,4.91764706 19.2470588,4.9512605 L20.4739496,5.12605042 C20.5042017,5.12941176 20.5344538,5.13277311 20.5647059,5.13277311 C20.7865546,5.13277311 21.0588235,5.03193277 21.2067227,4.88403361 L22.0605042,4.0302521 C22.1243697,3.96638655 22.1848739,3.93277311 22.2352941,3.93277311 C22.312605,3.93277311 22.3663881,4.01008403 22.3663881,4.15462185 C22.3663881,4.15462185 22.3731092,6.0907563 21.4957983,6.97142857 C20.6319328,7.83529412 18.7462185,7.84201681 18.6823529,7.84201681 L18.6789916,7.84201681 C18.4436975,7.84201681 18.1142857,7.97647059 17.9462185,8.14453782 L8.17815126,17.912605 C8.01008403,18.0806723 7.87563025,18.410084 7.87563025,18.6487395 C7.87563025,18.6487395 7.88235294,20.5848739 7.00504202,21.4655462 C6.14117647,22.3294118 4.25546218,22.3361345 4.19159664,22.3361345 L4.18823529,22.3361345 C3.95294118,22.3361345 3.89579832,22.1983193 4.0605042,22.0302521 L4.91428571,21.1764706 C5.08235294,21.0084034 5.19327731,20.6789916 5.15966387,20.4436975 L4.98487395,19.2168067 C4.9512605,18.9815126 4.73277311,18.7630252 4.49747899,18.7294118 L3.27058824,18.5546218 C3.24033613,18.5512605 3.21008403,18.5478992 3.17983193,18.5478992 C2.95798319,18.5478992 2.68571429,18.6487395 2.53781513,18.7966387 L1.68403361,19.6504202 C1.62016807,19.7142857 1.55966387,19.7478992 1.5092437,19.7478992 C1.43193277,19.7478992 1.37814973,19.6705882 1.37814973,19.5260504 C1.37814973,19.5260504 1.37142857,17.589916 2.2487395,16.7092437 C3.11260504,15.8453782 4.99831933,15.8386555 5.06218487,15.8386555 L5.06554622,15.8386555 C5.30084034,15.8386555 5.6302521,15.7042017 5.79831933,15.5361345 L15.5663866,5.76806723 C15.7344538,5.6 15.8689076,5.27058824 15.8689076,5.03193277 C15.8689076,5.03193277 15.8621849,3.09579832 16.7394958,2.21512605 C17.6067227,1.3512605 19.492437,1.34453782 19.5563025,1.34453782 M19.5596639,0 C19.102521,0.00672268908 18.6487395,0.0504201681 18.205042,0.134453782 C17.1596639,0.329411765 16.3495798,0.709243697 15.794958,1.26722689 C15.2336134,1.82857143 14.8504202,2.65210084 14.6554622,3.71428571 C14.5848739,4.10756303 14.5411765,4.50756303 14.5310924,4.90756303 L4.93781513,14.497479 C4.52436975,14.5109244 4.11428571,14.5546218 3.70756303,14.6319328 C2.66218487,14.8268908 1.85210084,15.2067227 1.29747899,15.7613445 C0.736134454,16.3226891 0.352941176,17.1462185 0.157983193,18.2084034 C0.0773109244,18.6453782 0.0369747899,19.0890756 0.0301511797,19.5327731 C0.0268907563,19.8352941 0.107563025,20.1310924 0.262184874,20.3932773 C0.524369748,20.8302521 0.994957983,21.0957983 1.50588235,21.0957983 C1.91596639,21.0957983 2.31596639,20.9210084 2.63193277,20.605042 L3.31764706,19.9193277 L3.73445378,19.9798319 L3.79495798,20.3966387 L3.1092437,21.0823529 C2.64201681,21.5462185 2.49411765,22.1882353 2.72941176,22.7563025 C2.96470588,23.3243697 3.51932773,23.6773109 4.18151261,23.6806723 L4.18823529,23.6806723 C4.64201681,23.6739496 5.09579832,23.6302521 5.54285714,23.5462185 C6.58823529,23.3512605 7.39831933,22.9714286 7.95294118,22.4134454 C8.51428571,21.8521008 8.89747899,21.0285714 9.09243697,19.9663866 C9.16302521,19.5731092 9.20672269,19.1731092 9.21680672,18.7731092 L18.8067227,9.18319328 C19.2201681,9.1697479 19.6302521,9.12605042 20.0369748,9.0487395 C21.0823529,8.85378151 21.892437,8.47394958 22.4470588,7.91932773 C23.0084034,7.35798319 23.3915966,6.53445378 23.5831933,5.47226891 C23.6638655,5.03529412 23.7042017,4.59159664 23.7110253,4.14789916 C23.7142857,3.84537815 23.6336134,3.54957983 23.4789916,3.28739496 C23.2168067,2.85042017 22.7462185,2.58487395 22.2352941,2.58487395 C21.8252101,2.58487395 21.4252101,2.75966387 21.1092437,3.07563025 L20.4268908,3.75798319 L20.010084,3.69747899 L19.9495798,3.28067227 L20.6352941,2.59831933 C21.102521,2.13109244 21.2504202,1.48571429 21.0151261,0.921008403 C20.7798319,0.356302521 20.2285714,0.00336134454 19.5663866,0 L19.5596639,0 Z" id="Servicio-tecnico_2Regular"></path>
        </g>
    </g>
</svg>

<svg width="24" height="24" viewBox="0 0 24 24" xmlns="http://www.w3.org/2000/svg"><path d="M19.556 1.345c.236 0 .296.137.128.305l-.854.854a.976.976 0 00-.245.733l.175 1.227a.609.609 0 00.487.487l1.227.175c.03.003.06.007.09.007.223 0 .495-.101.643-.249l.854-.854c.063-.064.124-.097.174-.097.078 0 .131.077.131.222 0 0 .007 1.936-.87 2.816-.864.864-2.75.871-2.814.871h-.003c-.235 0-.565.134-.733.303l-9.768 9.768a1.192 1.192 0 00-.302.736s.006 1.936-.871 2.817c-.864.863-2.75.87-2.813.87h-.004c-.235 0-.292-.138-.127-.306l.853-.854a.976.976 0 00.246-.732l-.175-1.227a.609.609 0 00-.488-.488l-1.226-.174c-.03-.004-.06-.007-.091-.007-.222 0-.494.1-.642.249l-.854.853c-.064.064-.124.098-.175.098-.077 0-.13-.077-.13-.222 0 0-.008-1.936.87-2.817.864-.864 2.75-.87 2.813-.87h.004c.235 0 .564-.135.732-.303l9.768-9.768c.168-.168.303-.497.303-.736 0 0-.007-1.936.87-2.817.868-.864 2.753-.87 2.817-.87M19.56 0c-.457.007-.911.05-1.355.134-1.045.195-1.855.575-2.41 1.133-.561.562-.945 1.385-1.14 2.447-.07.394-.114.794-.124 1.194l-9.593 9.59a7.962 7.962 0 00-1.23.134c-1.046.195-1.856.575-2.41 1.13-.562.56-.945 1.384-1.14 2.446-.08.437-.121.881-.128 1.325-.003.302.078.598.232.86.262.437.733.703 1.244.703.41 0 .81-.175 1.126-.491l.686-.686.416.06.061.418-.686.685c-.467.464-.615 1.106-.38 1.674.236.568.79.921 1.453.925h.006c.454-.007.908-.05 1.355-.135 1.045-.195 1.855-.575 2.41-1.133.561-.56.944-1.384 1.14-2.447.07-.393.114-.793.124-1.193l9.59-9.59a7.962 7.962 0 001.23-.134c1.045-.195 1.855-.575 2.41-1.13.561-.561.945-1.385 1.136-2.447.08-.437.121-.88.128-1.324a1.656 1.656 0 00-.232-.86 1.447 1.447 0 00-1.244-.703c-.41 0-.81.175-1.126.49l-.682.683-.417-.06-.06-.417.685-.683c.468-.467.615-1.112.38-1.677S20.23.003 19.566 0h-.006z" fill="#5CB615" fill-rule="nonzero"/></svg>
